!!!!SEGMENT: pl-kk--kk-i-242--003_anonim--rorate-caeli.krn
!!!cenid: 16xx:1961
!!!COM: Anonim
!!!COM-rismID: pe30004985
!!!CDT:
!!!CNT:
!!!OTL: Rorate caeli
!!!PDT:
!!!AGN: Sacred
!!!YEC: Copyright 2022 Narodowy Instytut Fryderyka Chopina (https://polishscores.org)
!!!YEM: License CC-BY-4.0 (https://creativecommons.org/licenses/by/4.0)
!!!SMS-siglum: PL-Kk
!!!SMS-shelfmark: Kk.I.242
!!!SMS-variant:
!!!SMS-altvar:
!!!SMS-shelfwork: 003 W
!!!NIFC-rismSourceID: 1001150847
!!!NIFC-rismChildID: 1001150854
!!!NIFC-islandoraID: pl-kk:4478
!!!URL-pdf-islandora: https://repozytorium.nifc.pl/islandora/object/pl-kk:4478/datastream/PDF/view
!!!URL-scan: https://polish.musicsources.pl/pl/lokalizacje/galeria/rekopisy/5862/17 @EN{Scan on Polish Music Sources Website} @PL{Skany w portalu Dziedzictwo Muzyki Polskiej w otwartym dostępie}
!!!IIIF:
!!!ONB-nifc: UWAGA: CATBBrip (należy uwzględnić również B rip). Kolejne utwory oznaczone w źródle cyframi.
!!!OMD:
!!!AIN: 1 alto 2 bass 1 canto 1 tenor
!!!key: G
**kern	**fba	**text	**kern	**text	**kern	**text	**kern	**text	**kern	**text
*part5	*part5	*part5	*part4	*part4	*part3	*part3	*part2	*part2	*part1	*part1
*staff5	*staff5	*staff5	*staff4	*staff4	*staff3	*staff3	*staff2	*staff2	*staff1	*staff1
*I"Baſso Ripieno.	*	*	*I"Baſso.	*	*I"Tenore.	*	*I"Alto.	*	*I"Canto.	*
*I'B rip	*	*	*I'B	*	*I'T	*	*I'A	*	*I'C	*
*Ibass	*	*	*Ibass	*	*Itenor	*	*Ialto	*	*Icanto	*
*ICvox	*	*	*ICvox	*	*ICvox	*	*ICvox	*	*ICvox	*
*clefF4	*	*	*clefF4	*	*clefC4	*	*clefC3	*	*clefC1	*
*k[]	*	*	*k[]	*	*k[]	*	*k[]	*	*k[]	*
*G:	*	*	*G:	*	*G:	*	*G:	*	*G:	*
*M2/2	*	*	*M2/2	*	*M2/2	*	*M2/2	*	*M2/2	*
*met(c|)	*	*	*met(c|)	*	*met(c|)	*	*met(c|)	*	*met(c|)	*
=1-	=1-	=1	=1	=1	=1	=1	=1	=1	=1	=1
!LO:TX:t=P:problem:w basie ripieno takty 71-82, 121-143 są zapisane 2x wolniejszymi/dłuższymi wartościami	!	!	!	!	!	!	!LO:TX:a:t=2	!	!	!
00r	.	.	00r	.	1G	Ro-	0r	.	00r	.
=2-	=2-	=2	=2	=2	=2	=2	=2	=2	=2	=2
.	.	.	.	.	1A	-ra-	.	.	.	.
=3-	=3-	=3	=3	=3	=3	=3	=3	=3	=3	=3
.	.	.	.	.	1G	-te	1d	Ro-	.	.
=4-	=4-	=4	=4	=4	=4	=4	=4	=4	=4	=4
.	.	.	.	.	2r	.	1e	-ra-	.	.
*	*	*	*	*	*2\right	*	*	*	*	*
.	.	.	.	.	[2c\	Cae-	.	.	.	.
=5-	=5-	=5	=5	=5	=5	=5	=5	=5	=5	=5
00r	.	.	00r	.	2c\]	.	1d	-te	00r	.
.	.	.	.	.	[2B\	.	.	.	.	.
=6-	=6-	=6	=6	=6	=6	=6	=6	=6	=6	=6
!	!	!	!	!	!LO:N:xstem	!	!	!	!	!
.	.	.	.	.	4B\]	.	2r	.	.	.
.	.	.	.	.	4A\	.	.	.	.	.
*	*	*	*	*	*	*	*2\right	*	*	*
.	.	.	.	.	4B\	.	[<2g\	Cae-	.	.
.	.	.	.	.	4G\	.	.	.	.	.
=7-	=7-	=7	=7	=7	=7	=7	=7	=7	=7	=7
.	.	.	.	.	2.c\	.	2g\]	.	.	.
.	.	.	.	.	.	.	[2e\	.	.	.
.	.	.	.	.	4B\	.	.	.	.	.
=8-	=8-	=8	=8	=8	=8	=8	=8	=8	=8	=8
!	!	!	!	!	!	!	!LO:N:xstem	!	!	!
.	.	.	.	.	1A	.	4e\]	.	.	.
.	.	.	.	.	.	.	4d\	.	.	.
.	.	.	.	.	.	.	4e\	.	.	.
.	.	.	.	.	.	.	4c/	.	.	.
!	!	!	!	!	!	!	!LO:LB:g=original	!	!	!
=9-	=9-	=9	=9	=9	=9	=9	=9	=9	=9	=9
0r	.	.	0r	.	2B\	.	2g\	.	0r	.
.	.	.	.	.	2c\	.	2e\	.	.	.
=10-	=10-	=10	=10	=10	=10	=10	=10	=10	=10	=10
.	.	.	.	.	2A\	.	2f\	.	.	.
.	.	.	.	.	2B\	-li	2d\	-li	.	.
=11-	=11-	=11	=11	=11	=11	=11	=11	=11	=11	=11
!LO:TX:t=P:problem:kreska pseudotaktowa	!	!	!	!	!	!	!	!	!	!
1r	.	.	1r	.	2.c\	de-	4e\	de-	1g	Ro-
.	.	.	.	.	.	.	4f\	.	.	.
.	.	.	.	.	.	.	[<2g\	.	.	.
.	.	.	.	.	4B\	.	.	.	.	.
!	!	!	!	!	!LO:LB:g=original	!	!	!	!	!
=12-	=12-	=12	=12	=12	=12	=12	=12	=12	=12	=12
1D	.	Ro-	1D	Ro-	2A/	.	2g\]	.	1a	-ra-
.	.	.	.	.	[<2d\	.	[<2f\	.	.	.
=13-	=13-	=13	=13	=13	=13	=13	=13	=13	=13	=13
1E	76nr	-ra-	1E	-ra-	2d\]	.	2f\]	.	1g	-te
.	.	.	.	.	[<2c\	.	2e\	-su-	.	.
=14-	=14-	=14	=14	=14	=14	=14	=14	=14	=14	=14
!LO:TX:t=P:problem:kreska pseudotaktowa	!	!	!	!	!	!	!	!	!	!
1D	76	-te	1D	-te	2c\]	.	1f	-per	0r	.
.	.	.	.	.	2B\	-su-	.	.	.	.
=15-	=15-	=15	=15	=15	=15	=15	=15	=15	=15	=15
2r	.	.	2r	.	2c,<\	-per	2e\	de-	.	.
*	*	*	*2\right	*	*	*	*	*	*	*
1G\	.	Cae-	[<2G\	Cae-	[<2B\	Ro-	[<2d\	.	.	.
=16-	=16-	=16	=16	=16	=16	=16	=16	=16	=16	=16
.	.	.	2G\]	.	2B\]	.	2d\]	.	1r	.
*2\right	*	*	*	*	*	*	*	*	*	*
!LO:TX:t=P:problem:kreska pseudotaktowa	!	!	!	!	!	!	!	!	!	!
[2E\	.	.	[2E\	.	2B\	-ra-	[<2g\	.	.	.
=17-	=17-	=17	=17	=17	=17	=17	=17	=17	=17	=17
!LO:N:xstem	!	!	!LO:N:xstem	!	!	!	!	!	!	!
4E\]	.	.	4E\]	.	1e	-te	2g\]	.	2r	.
4D/	.	.	4D/	.	.	.	.	.	.	.
*	*	*	*	*	*	*	*	*	*2\right	*
4E/	.	.	4E\	.	.	.	2g\	-su-	[2cc\	Cae-
4C/	.	.	4C/	.	.	.	.	.	.	.
!	!	!	!	!	!	!	!LO:LB:g=original	!	!	!
=18-	=18-	=18	=18	=18	=18	=18	=18	=18	=18	=18
1G	43	.	1G	.	2d\	Cae-	2g\	-per	2cc\]	.
.	.	.	.	.	[<2d\	-li	[<2g\	de-	[2b\	.
=19-	=19-	=19	=19	=19	=19	=19	=19	=19	=19	=19
!LO:TX:t=P:problem:kreska pseudotaktowa	!	!	!	!	!	!	!	!LO:N:xstem	!	!
1G	.	-li	1G	-li	2d\]	.	2g\]	.	4b\]	.
.	.	.	.	.	.	.	.	.	4a\	.
.	.	.	.	.	2d\	de-	[<2g\	.	4b\	-li
.	.	.	.	.	.	.	.	.	4g/	.
!	!	!	!LO:LB:g=original	!	!	!	!	!	!LO:LB:g=original	!
=20-	=20-	=20	=20	=20	=20	=20	=20	=20	=20	=20
2.A\	7	de-	2.A\	de-	2.c\	.	2g\]	.	(2cc\	de-
.	.	.	.	.	.	.	2f#X\	-su-	4b\)	.
4A\	6\	-su-	4A\	-su-	4c\	-su-	.	.	4a\	-su-
=21-	=21-	=21	=21	=21	=21	=21	=21	=21	=21	=21
!LO:TX:t=P:problem:kreska pseudotaktowa	!	!	!	!	!	!	!	!	!	!
1G	.	-per	1G	-per	1d	-per	1g	-per	2b,<\	-per
.	.	.	.	.	.	.	.	.	[<2dd\	et
=22-	=22-	=22	=22	=22	=22	=22	=22	=22	=22	=22
!	!	!	!	!	!LO:TX:a:t=2	!	!	!	!	!
2r	.	.	2r	.	0r	.	1r	.	2dd\]	.
1G\	.	et	[<2G\	et	.	.	.	.	[<2b\	nu-
=23-	=23-	=23	=23	=23	=23	=23	=23	=23	=23	=23
.	.	.	2G\]	.	.	.	1g	et	2b\]	.
1E\	.	nu-	[2E\	nu-	.	.	.	.	[2g/	-bes
=24-	=24-	=24	=24	=24	=24	=24	=24	=24	=24	=24
.	.	.	2E\]	.	2r	.	1e	nu-	2g/]	.
!LO:TX:t=P:problem:kreska pseudotaktowa	!	!	!	!	!	!	!	!	!	!
[2C/	.	-bes	[2C/	-bes	[2c\	et	.	.	4cc\	plu-
.	.	.	.	.	.	.	.	.	4b\	-ant
=25-	=25-	=25	=25	=25	=25	=25	=25	=25	=25	=25
2C/]	.	.	2C/]	.	2c\]	.	2c/	-bes	[<1a	Ju-
4C/	.	plu-	4C/	plu-	2A/	nu-	[2e\	plu-	.	.
4C/	.	-ant	4C/	-ant	.	.	.	.	.	.
!	!	!	!	!	!LO:LB:g=original	!	!	!	!	!
=26-	=26-	=26	=26	=26	=26	=26	=26	=26	=26	=26
0D	.	Jus-	0D	jus-	2F#X/	-bes	4e\]	.	2a\]	.
.	.	.	.	.	.	.	4d\	.	.	.
.	.	.	.	.	4G/	plu-	2d\	-ant	2b\	.
.	.	.	.	.	4G/	-ant	.	.	.	.
!	!	!	!	!	!	!	!LO:LB:g=original	!	!	!
=27-	=27-	=27	=27	=27	=27	=27	=27	=27	=27	=27
.	.	.	.	.	2G/	ju-	1d	jus-	1a	.
.	.	.	.	.	2F#X/	.	.	.	.	.
=28-	=28-	=28	=28	=28	=28	=28	=28	=28	=28	=28
!LO:TX:t=P:problem:kreska pseudotaktowa	!	!	!	!	!	!	!	!	!	!
1GG	.	-tum	1GG	-tum	1G	-stu(m)	1d	-tum	2b,<\	-stum
.	.	.	.	.	.	.	.	.	2b\	a-
!	!	!	!	!	!	!	!	!	!LO:LB:g=original	!
=29-	=29-	=29	=29	=29	=29	=29	=29	=29	=29	=29
00r	.	.	00r	.	0r	.	2r	.	2cc\	-pe-
.	.	.	.	.	.	.	2e\	a-	2b\	-ri-
=30-	=30-	=30	=30	=30	=30	=30	=30	=30	=30	=30
.	.	.	.	.	.	.	2f\	-pe-	2a\	-a-
.	.	.	.	.	.	.	2e\	-ri-	2cc\	-tur
=31-	=31-	=31	=31	=31	=31	=31	=31	=31	=31	=31
.	.	.	.	.	1r	.	2d\	-a-	2.dd\	ter-
.	.	.	.	.	.	.	2f\	-tur	.	.
.	.	.	.	.	.	.	.	.	4cc\	.
=32-	=32-	=32	=32	=32	=32	=32	=32	=32	=32	=32
.	.	.	.	.	2r	.	2.g\	ter-	1b	-ra
.	.	.	.	.	2B\	a-	.	.	.	.
.	.	.	.	.	.	.	4f\	.	.	.
=33-	=33-	=33	=33	=33	=33	=33	=33	=33	=33	=33
!	!	!	!	!	!	!	!	!	!LO:TX:a:t=4.	!
2r	.	.	2r	.	2c\	-pe-	2e\	.	00r	.
!LO:TX:t=P:problem:kreska pseudotaktowa	!	!	!	!	!	!	!	!	!	!
2E\	.	a-	2E\	a-	2B\	-ri-	2g\	.	.	.
=34-	=34-	=34	=34	=34	=34	=34	=34	=34	=34	=34
2F\	.	-pe-	2F\	-pe-	2A/	-a-	2c/	.	.	.
!LO:TX:t=P:problem:kreska pseudotaktowa	!	!	!	!	!	!	!	!	!	!
2E\	6	-ri-	2E\	-ri-	2d\	-tur	2e\	.	.	.
=35-	=35-	=35	=35	=35	=35	=35	=35	=35	=35	=35
2D\	.	-a-	2D/	-a-	2.d\	ter-	2.f\	.	.	.
!LO:TX:t=P:problem:kreska pseudotaktowa	!	!	!	!	!	!	!	!	!	!
2F\	.	-tur	2F\	-tur	.	.	.	.	.	.
.	.	.	.	.	4c\	.	4e\	.	.	.
!	!	!	!LO:LB:g=original	!	!	!	!	!	!	!
=36-	=36-	=36	=36	=36	=36	=36	=36	=36	=36	=36
2.G\	.	ter-	2.G\	ter-	1B	-ra	2d\	-ra	.	.
.	.	.	.	.	.	.	[<2g\	a-	.	.
4F\	.	.	4F\	.	.	.	.	.	.	.
!	!	!	!	!	!	!	!LO:LB:g=original	!	!	!
=37-	=37-	=37	=37	=37	=37	=37	=37	=37	=37	=37
!	!	!	!	!	!	!	!LO:TX:t=P:problem:brak zakończenia łuku	!	!	!
2.E\	6	.	2.E\	.	0r	.	2g\]	.	2r	.
.	.	.	.	.	.	.	4e\	-pe-	[<2cc\	et
!LO:TX:t=P:problem:kreska pseudotaktowa	!	!	!	!	!	!	!	!	!	!
4F\	5	.	4F\	.	.	.	4e\	-ri-	.	.
=38-	=38-	=38	=38	=38	=38	=38	=38	=38	=38	=38
2G\	.	.	2G\	.	.	.	1d	-a-	2cc\]	.
!LO:TX:t=P:problem:kreska pseudotaktowa	!	!	!	!	!	!	!	!	!	!
2GG/	.	.	2GG/	.	.	.	.	.	4.b\	ger-
.	.	.	.	.	.	.	.	.	8b\	-mi-
=39-	=39-	=39	=39	=39	=39	=39	=39	=39	=39	=39
!LO:LB:g=original	!	!	!	!	!	!	!	!	!	!
1C	.	.	1C	.	2r	.	1e	-tur	2cc\	-net
.	.	.	.	.	[<2c\	et	.	.	4a\	Sal-
.	.	.	.	.	.	.	.	.	4a\	-va-
!	!	!	!	!	!LO:LB:g=original	!	!	!	!	!
=40-	=40-	=40	=40	=40	=40	=40	=40	=40	=40	=40
!LO:TX:t=P:problem:kreska pseudotaktowa	!	!	!	!	!	!	!	!	!	!
1G	.	-ra	1G	-ra	2c\]	.	2r	.	2g/	-to-
.	.	.	.	.	4.B\	ger-	[<2g\	et	2g/	-rem
.	.	.	.	.	8B\	-mi-	.	.	.	.
!	!	!	!	!	!	!	!	!	!LO:LB:g=original	!
=41-	=41-	=41	=41	=41	=41	=41	=41	=41	=41	=41
!	!	!	!	!	!	!	!	!	!LO:TX:a:t=1	!
0r	.	.	0r	.	2c\	-net	2g\]	.	1r	.
.	.	.	.	.	4A/	Sal-	4.f#X\	ger-	.	.
.	.	.	.	.	4A/	-va-	.	.	.	.
.	.	.	.	.	.	.	8f#\	-mi-	.	.
=42-	=42-	=42	=42	=42	=42	=42	=42	=42	=42	=42
.	.	.	.	.	2G/	-to-	2g\	-net	2r	.
.	.	.	.	.	2c\	.	4e\	Sal-	[<2cc\	et
.	.	.	.	.	.	.	4e\	-va-	.	.
=43-	=43-	=43	=43	=43	=43	=43	=43	=43	=43	=43
2r	.	.	2r	.	1G	.	1d	-to-	2cc\]	.
1G\	.	et	[<2G\	et	.	.	.	.	4.b\	ger-
.	.	.	.	.	.	.	.	.	8b\	-mi-
=44-	=44-	=44	=44	=44	=44	=44	=44	=44	=44	=44
.	.	.	2G\]	.	1A	.	2e,<\	-rem	2cc\	-net
4.F#X\	.	ger-	4.F#X\	ger-	.	.	[<2d\	Sal-	4a\	Sal-
.	.	.	.	.	.	.	.	.	4a\	-va-
!LO:TX:t=P:problem:kreska pseudotaktowa	!	!	!	!	!	!	!	!	!	!
8F#\	.	-mi-	8F#\	-mi-	.	.	.	.	.	.
=45-	=45-	=45	=45	=45	=45	=45	=45	=45	=45	=45
2G,<\	.	-net	2G\	-net	2B\	.	2d\]	.	1g	-to-
4E\	.	Sal-	4E\	Sal-	[2c\	.	2e\	-va-	.	.
4E\	.	-va-	4E\	-va-	.	.	.	.	.	.
!	!	!	!	!	!	!	!LO:LB:g=original	!	!	!
=46-	=46-	=46	=46	=46	=46	=46	=46	=46	=46	=46
0D	.	-to-	0D	-to-	2c\]	.	2f#X\	-to-	2a\	-rem
.	.	.	.	.	2B\	.	[<2g\	.	4b\	Sal-
.	.	.	.	.	.	.	.	.	4cc\	-va-
=47-	=47-	=47	=47	=47	=47	=47	=47	=47	=47	=47
.	.	.	.	.	2A/	.	2g\]	.	2dd\	-to-
.	.	.	.	.	[<2d\	.	2f#X\	.	2a\	.
=48-	=48-	=48	=48	=48	=48	=48	=48	=48	=48	=48
!LO:SIC:v:s=1GG	!	!	!	!	!	!	!	!	!	!
1AA	.	.	1GG	.	2d\]	.	1e	.	1a	.
.	.	.	.	.	2c#X\	.	.	.	.	.
=49-	=49-	=49	=49	=49	=49	=49	=49	=49	=49	=49
!LO:TX:t=P:problem:kreska pseudotaktowa	!	!	!	!	!	!	!	!	!	!
1D	.	-rem	1D	-rem	2d,<\	-rem	1f#X	-rem	1a	-rem
.	.	.	.	.	2A/	a-	.	.	.	.
=50-	=50-	=50	=50	=50	=50	=50	=50	=50	=50	=50
2r	.	.	2r	.	2B\	-pe-	1f#X	et	0r	.
2D\	.	a-	2D/	a-	2A/	-ri-	.	.	.	.
!	!	!	!LO:LB:g=original	!	!	!	!	!	!	!
=51-	=51-	=51	=51	=51	=51	=51	=51	=51	=51	=51
2E\	.	-pe-	2E\	-pe-	2G/	-a-	2.g\	ger-	.	.
2D\	.	-ri-	2D/	-ri-	2B\	-tur	.	.	.	.
.	.	.	.	.	.	.	4g\	-mi-	.	.
!	!	!	!	!	!LO:LB:g=original	!	!	!	!	!
=52-	=52-	=52	=52	=52	=52	=52	=52	=52	=52	=52
2C/	.	-a-	2C/	-a-	2.c\	ter-	1g	-net	1r	.
!LO:TX:t=P:problem:kreska pseudotaktowa	!	!	!	!	!	!	!	!	!	!
2E\	6	-tur	2E\	-tur	.	.	.	.	.	.
.	.	.	.	.	4B\	.	.	.	.	.
!	!	!	!	!	!	!	!	!	!LO:LB:g=original	!
=53-	=53-	=53	=53	=53	=53	=53	=53	=53	=53	=53
2.Fny\	.	ter-	2.F\	ter-	1A	-ra	0r	.	2r	.
.	.	.	.	.	.	.	.	.	[<2cc\	et
4E\	6	.	4E\	.	.	.	.	.	.	.
=54-	=54-	=54	=54	=54	=54	=54	=54	=54	=54	=54
!	!	!	!	!	!LO:TX:a:t=1	!	!	!	!	!
1D	76	.	1D	.	1r	.	.	.	2cc\]	.
.	.	.	.	.	.	.	.	.	4.b\	ger-
.	.	.	.	.	.	.	.	.	8b\	-mi-
=55-	=55-	=55	=55	=55	=55	=55	=55	=55	=55	=55
2C/	.	-ra	2C/	-ra	2r	.	1r	.	2cc\	-net
!LO:TX:t=P:problem:kreska pseudotaktowa	!	!	!	!	!	!	!	!	!	!
2r	.	.	2r	.	[2c\	et	.	.	4a\	Sal-
.	.	.	.	.	.	.	.	.	4a\	-va-
=56-	=56-	=56	=56	=56	=56	=56	=56	=56	=56	=56
0r	.	.	0r	.	2c\]	.	2r	.	2g/	-to-
.	.	.	.	.	4.B\	ger-	[2g\	et	2g/	-rem
.	.	.	.	.	8B\	-mi-	.	.	.	.
=57-	=57-	=57	=57	=57	=57	=57	=57	=57	=57	=57
!	!	!	!	!	!	!	!	!	!LO:TX:a:t=1	!
.	.	.	.	.	2c\	-net	2g\]	.	1r	.
.	.	.	.	.	4A/	Sal-	4.f#X\	ger-	.	.
.	.	.	.	.	4A/	-va-	.	.	.	.
.	.	.	.	.	.	.	8f#\	-mi-	.	.
=58-	=58-	=58	=58	=58	=58	=58	=58	=58	=58	=58
!LO:TX:t=P:problem:kreska pseudotaktowa	!	!	!	!	!	!	!	!	!	!
1r	.	.	1r	.	2G/	-to-	2g\	-net	2r	.
.	.	.	.	.	2c\	.	4e\	Sal-	[<2cc\	et
.	.	.	.	.	.	.	4e\	-va-	.	.
!	!	!	!	!	!	!	!LO:LB:g=original	!	!	!
=59-	=59-	=59	=59	=59	=59	=59	=59	=59	=59	=59
2r	.	.	2r	.	1G	.	2d\	-to-	2cc\]	.
1G\	32	et	[<2G\	et	.	.	2d\	-rem	4.b\	ger-
.	.	.	.	.	.	.	.	.	8b\	-mi-
=60-	=60-	=60	=60	=60	=60	=60	=60	=60	=60	=60
.	.	.	2G\]	.	1A	.	1r	.	2cc\	-net
4.F#X\	.	ger-	4.F#X\	ger-	.	.	.	.	4a\	Sal-
.	.	.	.	.	.	.	.	.	4a\	-va-
8F#\	.	-mi-	8F#\	-mi-	.	.	.	.	.	.
=61-	=61-	=61	=61	=61	=61	=61	=61	=61	=61	=61
2G,<\	.	-net	2G\	-net	2B\	.	2r	.	2g/	-to-
4E\	6	Sal-	4E\	Sal-	2E/	.	[2g\	et	4b\	.
4E\	.	-va-	4E\	-va-	.	.	.	.	4cc#X\	.
!	!	!	!	!	!	!	!	!	!LO:LB:g=original	!
=62-	=62-	=62	=62	=62	=62	=62	=62	=62	=62	=62
!LO:TX:t=P:problem:kreska pseudotaktowa	!	!	!	!	!	!	!	!	!	!
1D	.	-to-	1D	-to-	2A/	.	2g\]	.	1dd	-rem
.	.	.	.	.	2A/	-rem	4.f#X\	ger-	.	.
.	.	.	.	.	.	.	8f#\	-mi-	.	.
=63-	=63-	=63	=63	=63	=63	=63	=63	=63	=63	=63
1E	.	.	1E	.	2r	.	2g\	-net	0r	.
.	.	.	.	.	[2c\	(et)	4e\	Sal-	.	.
.	.	.	.	.	.	.	4e\	-va-	.	.
=64-	=64-	=64	=64	=64	=64	=64	=64	=64	=64	=64
2F#X\	.	.	2F#X\	.	2c\]	.	2d\	-to-	.	.
1G\	.	.	[2G\	.	4.B\	ger-	2d\	-rem	.	.
.	.	.	.	.	8B\	-mi-	.	.	.	.
=65-	=65-	=65	=65	=65	=65	=65	=65	=65	=65	=65
.	.	.	2G\]	.	2c\	-net	2a\	Sal-	2r	.
!LO:TX:t=P:problem:kreska pseudotaktowa	!	!	!	!	!	!	!	!	!	!
2F#X\	.	.	2F#X\	.	4A/	Sal-	2a\	-va-	[<2dd\	et
.	.	.	.	.	4A/	-va-	.	.	.	.
!	!	!	!LO:LB:g=original	!	!	!	!	!	!	!
=66-	=66-	=66	=66	=66	=66	=66	=66	=66	=66	=66
2G,<\	.	-rem	2G\	-rem	1G	-to-	2b\	-to-	2dd\]	.
*	*	*ij	*	*	*	*	*	*	*	*
4E\	6\	sal-	4E\	Sal-	.	.	2g\	.	4.cc#X\	ger-
4E\	.	-va-	4E\	-va-	.	.	.	.	.	.
.	.	.	.	.	.	.	.	.	8cc#\	-mi-
=67-	=67-	=67	=67	=67	=67	=67	=67	=67	=67	=67
0D	.	-to-	0D	-to-	2A/	.	4f#X\	.	2dd,<\	-net
.	.	.	.	.	.	.	4d\	.	.	.
.	.	.	.	.	(4B\	.	[2g\	.	4b\	Sal-
.	.	.	.	.	4c\)	.	.	.	4b\	-va-
=68-	=68-	=68	=68	=68	=68	=68	=68	=68	=68	=68
.	.	.	.	.	1d	.	2g\]	.	1a	-to-
.	.	.	.	.	.	.	2f#X\	.	.	.
=69-	=69-	=69	=69	=69	=69	=69	=69	=69	=69	=69
0GG;	.	-rem	0GG	-rem.	0d;	-rem	0g;<	-rem.	0b;<	-rem.
*	*	*Xij	*	*	*	*	*	*	*	*
=70-	=70-	=70	=70	=70	=70-	=70	=70-	=70	=70-	=70
.	.	.	.	.	.	.	.	.	.	.
!	!	!	!	!	!LO:PB:g=original	!	!LO:PB:g=original	!	!	!
=71||-	=71||-	=71||	=71||	=71||	=71||	=71||	=71||	=71||	=71||	=71||
*M3/2	*	*	*M3/4	*	*M3/4	*	*M3/4	*	*M3/4	*
!LO:TX:t=P:problem:inne metrum niż pozostałe głosy. 2x dłuższe wartości rytmiczne	!	!	!	!	!	!	!	!	!	!
!LO:LB:g=original	!	!	!	!	!	!	!	!	!	!
4c\	.	Be-	4c\	Be-	4c\	Be-	4g\	Be-	4ee\	Be-
4c\	.	-ne-	4c\	-ne-	4c\	-ne-	4g\	-ne-	4ee\	-ne-
!LO:TX:t=P:problem:kreska pseudotaktowa	!	!	!	!	!	!	!	!	!	!
4c\	.	-di-	4c\	-di-	4c\	-di-	4g\	-di-	4ee\	-di-
!	!	!	!	!	!	!	!	!	!LO:LB:g=original	!
=72-	=72-	=72	=72	=72	=72	=72	=72	=72	=72	=72
2B\	.	-xis-	2B\	-xiſ-	2d\	-xis-	2g\	-xis-	2gg\	-xis-
!LO:TX:t=P:problem:kreska pseudotaktowa	!	!	!	!	!	!	!	!	!	!
4c\	.	-ti	4c\	-ti	4c\	-ti	4g\	-ti	4ee\	-ti
=73-	=73-	=73	=73	=73	=73	=73	=73	=73	=73	=73
4.G\	.	Do-	4.G\	Do-	4.B\	Do-	4.g\	Do-	4.dd\	Do-
8G\	.	-mi-	8G\	-mi-	8B\	-mi-	8g\	-mi-	8dd\	-mi-
!LO:TX:t=P:problem:kreska pseudotaktowa	!	!	!	!	!	!	!	!	!	!
4c\	.	-ne	4c\	-ne	4c\	-ne	4g\	-ne	4ee\	-ne
=74-	=74-	=74	=74	=74	=74	=74	=74	=74	=74	=74
2B\	.	ter-	2B\	ter-	2d\	ter-	2g\	ter-	2gg\	ter-
!LO:TX:t=P:problem:kreska pseudotaktowa	!	!	!	!	!	!	!	!	!	!
4c\	.	-ram	4c\	-ram	4c\	-ram	4g\	-ram	4ee\	-ram
=75-	=75-	=75	=75	=75	=75	=75	=75	=75	=75	=75
4G\	.	tu-	4G\	tu-	4B\	tu-	4g\	tu-	4dd\	tu-
4G\	.	-am	4G\	-am	4B\	-am	4g\	-am	4dd\	-am
!LO:TX:t=P:problem:kreska pseudotaktowa	!	!	!	!	!	!	!	!	!	!
4r	.	.	4r	.	4r	.	4r	.	4r	.
!	!	!	!	!	!	!	!LO:LB:g=original	!	!	!
=76-	=76-	=76	=76	=76	=76	=76	=76	=76	=76	=76
2c\	.	a-	2c\	a-	2G/	a-	2g\	a-	2cc\	a-
!LO:TX:t=P:problem:kreska pseudotaktowa	!	!	!	!	!	!	!	!	!	!
4c\	.	-ver-	4c\	-ver-	4G/	-ver-	4e\	-ver-	4cc\	-vae-
=77-	=77-	=77	=77	=77	=77	=77	=77	=77	=77	=77
2A\	.	-tiſ-	2A\	-tiſ-	2A/	-tis-	2e\	-tis-	2cc\	-tis-
!LO:TX:t=P:problem:kreska pseudotaktowa	!	!	!	!	!	!	!	!	!	!
4A\	.	-ti	4A\	-ti	4A/	-ti	4e\	-ti	4cc,<\	-ti
=78-	=78-	=78	=78	=78	=78	=78	=78	=78	=78	=78
4E\	.	cap-	4E\	cap-	4G/	cap-	4e\	cap-	4cc\	cap-
4E\	.	-ti-	4E\	-ti-	4G/	-ti-	4c/	-ti-	4cc\	-ti-
!LO:TX:t=P:problem:kreska pseudotaktowa	!	!	!	!	!	!	!	!	!	!
4E\	.	-vi-	4E\	-vi-	4G/	-vi-	4c/	-vi-	4cc\	-vi-
=79-	=79-	=79	=79	=79	=79	=79	=79	=79	=79	=79
2Fny\	.	-ta-	2F\	-ta-	2A/	-ta-	2c/	-ta-	2cc\	-ta-
!LO:TX:t=P:problem:kreska pseudotaktowa	!	!	!	!	!	!	!	!	!	!
4F\	.	-tem	4F\	-tem	4A/	-tem	[<4f\	-tem	4dd,<\	-tem
*	*	*	*custos:G	*	*	*	*	*	*	*
!	!	!	!LO:PB:g=original	!	!	!	!LO:LB:g=original	!	!	!
=80-	=80-	=80	=80	=80	=80	=80	=80	=80	=80	=80
!LO:TX:t=P:problem:kreska pseudotaktowa	!	!	!	!	!	!	!	!	!	!
[<2.G\	.	Ja-	[<2.G\	Ja-	[2.G/	Ja-	4f\]	.	2b\	Ja-
.	.	.	.	.	.	.	(8e\L	Ja-	.	.
.	.	.	.	.	.	.	8d\J)	.	.	.
.	.	.	.	.	.	.	4e\	.	[<4cc\	.
=81-	=81-	=81	=81	=81	=81	=81	=81	=81	=81	=81
!LO:TX:t=P:problem:kreska pseudotaktowa	!	!	!	!	!	!	!	!	!	!
2.G\]	.	.	2.G\]	.	2.G/]	.	2.d\	.	4cc\]	.
.	.	.	.	.	.	.	.	.	2b\	.
=82-	=82-	=82	=82	=82	=82	=82	=82	=82	=82	=82
!	!	!	!	!	!	!	!	!	!LO:TX:b:i:t=Verta<..>	!
2.C/	.	-cob.	2.C/	-cob.	2.G;/	-cob.	2.e\	-cob.	2.cc\	-cob.
!	!	!	!	!	!LO:LB:g=original	!	!	!	!LO:PB:g=original	!
=83||-	=83||-	=83||	=83||	=83||	=83||	=83||	=83||	=83||	=83||	=83||
*M2/2	*	*	*M2/2	*	*M2/2	*	*M2/2	*	*M2/2	*
*met(c|)	*	*	*met(c|)	*	*met(c|)	*	*met(c|)	*	*met(c|)	*
!	!	!	!	!	!	!	!LO:TX:a:t=4	!	!	!
00r	.	.	00r	.	1G	Glo-	00r	.	00r	.
=84-	=84-	=84	=84	=84	=84	=84	=84	=84	=84	=84
.	.	.	.	.	2A/	.	.	.	.	.
.	.	.	.	.	[<2c\	.	.	.	.	.
=85-	=85-	=85	=85	=85	=85	=85	=85	=85	=85	=85
.	.	.	.	.	2c\]	.	.	.	.	.
.	.	.	.	.	2B\	.	.	.	.	.
=86-	=86-	=86	=86	=86	=86	=86	=86	=86	=86	=86
.	.	.	.	.	2c\	.	.	.	.	.
.	.	.	.	.	4.A/	.	.	.	.	.
.	.	.	.	.	8A/	-ri-	.	.	.	.
=87-	=87-	=87	=87	=87	=87	=87	=87	=87	=87	=87
00r	.	.	00r	.	1G	-a	2r	.	00r	.
.	.	.	.	.	.	.	2d\	Glo-	.	.
=88-	=88-	=88	=88	=88	=88	=88	=88	=88	=88	=88
.	.	.	.	.	2c\	Pa-	2e\	.	.	.
.	.	.	.	.	2B\	.	[<2g\	.	.	.
=89-	=89-	=89	=89	=89	=89	=89	=89	=89	=89	=89
.	.	.	.	.	2c\	-tri	2g\]	.	.	.
.	.	.	.	.	2d\	et	4f#X\	-ri-	.	.
.	.	.	.	.	.	.	4f#\	-a	.	.
!	!	!	!	!	!	!	!LO:LB:g=original	!	!	!
=90-	=90-	=90	=90	=90	=90	=90	=90	=90	=90	=90
.	.	.	.	.	2B\	Fi-	2g\	Pa-	.	.
.	.	.	.	.	2c\	.	2e\	.	.	.
=91-	=91-	=91	=91	=91	=91	=91	=91	=91	=91	=91
00r	.	.	00r	.	2d\	.	2d\	-tri	2r	.
.	.	.	.	.	2B\	.	2d\	glo-	2g/	Glo-
=92-	=92-	=92	=92	=92	=92	=92	=92	=92	=92	=92
.	.	.	.	.	2.A/	.	4c\	.	2a\	.
.	.	.	.	.	.	.	4d\	.	.	.
.	.	.	.	.	.	.	4e\	.	[<2cc\	.
.	.	.	.	.	4A/	-li-	4a\	.	.	.
=93-	=93-	=93	=93	=93	=93	=93	=93	=93	=93	=93
.	.	.	.	.	2d\	-o	2f#X\	.	2cc\]	.
.	.	.	.	.	2G/	glo-	[<2g\	.	2b\	.
=94-	=94-	=94	=94	=94	=94	=94	=94	=94	=94	=94
.	.	.	.	.	2c\	.	2g\]	.	2.a\	.
.	.	.	.	.	2d\	.	2f#X\	.	.	.
.	.	.	.	.	.	.	.	.	4a\	-ri-
!	!	!	!	!	!LO:LB:g=original	!	!	!	!	!
=95-	=95-	=95	=95	=95	=95	=95	=95	=95	=95	=95
!LO:TX:t=P:problem:kreska pseudotaktowa	!	!	!	!	!	!	!	!	!	!
1r	.	.	1r	.	4G\	.	2.g\	.	2b,<\	-a
.	.	.	.	.	4A\	.	.	.	.	.
.	.	.	.	.	4B\	.	.	.	2b\	Pa-
.	.	.	.	.	4c\	.	4g\	-ri-	.	.
=96-	=96-	=96	=96	=96	=96	=96	=96	=96	=96	=96
2r	.	.	2r	.	4.d\	.	2f#X\	-a	2a\	-tri
.	.	.	.	.	8d\	-ri-	.	.	.	.
!LO:TX:t=P:problem:kreska pseudotaktowa	!	!	!	!	!	!	!	!	!	!
2D\	.	Glo-	2D/	Glo-	2A/	-a	2f#X\	glo-	2dd\	et
!	!	!	!	!	!	!	!	!	!LO:LB:g=original	!
=97-	=97-	=97	=97	=97	=97	=97	=97	=97	=97	=97
2E\	6	.	2E\	.	2G/	et	1g	.	2cc\	Fi-
1G\	32	.	[<2G\	.	2B\	Spi-	.	.	2b\	.
=98-	=98-	=98	=98	=98	=98	=98	=98	=98	=98	=98
.	.	.	2G\]	.	4.A/	-ri-	1a	.	2cc\	.
.	.	.	.	.	8A/	-tu-	.	.	.	.
4F#X\	6	-ri-	4F#X\	-ri-	2A/	-i	.	.	2dd\	.
!LO:TX:t=P:problem:kreska pseudotaktowa	!	!	!	!	!	!	!	!	!	!
4F#\	.	-a	4F#\	-a	.	.	.	.	.	.
!	!	!	!	!	!	!	!LO:LB:g=original	!	!	!
=99-	=99-	=99	=99	=99	=99	=99	=99	=99	=99	=99
2G\	.	Pa-	2G\	Pa-	2d\	San-	1g	.	2b\	.
2E\	6\	-tri	2E\	.	2e\	.	.	.	4.cc#X\	.
.	.	.	.	.	.	.	.	.	8cc#\	-li-
=100-	=100-	=100	=100	=100	=100	=100	=100	=100	=100	=100
2D/	.	.	2D/	-tri	2A/	-cto	2f#X\	.	2dd,<\	-o
!LO:TX:t=P:problem:kreska pseudotaktowa	!	!	!	!	!	!	!	!	!	!
2r	.	.	2r	.	2r	.	2d\	-ri-	4dd\	et
.	.	.	.	.	.	.	.	.	4dd\	spi-
=101-	=101-	=101	=101	=101	=101	=101	=101	=101	=101	=101
!LO:LB:g=original	!	!	!	!	!	!	!	!	!	!
00r	.	.	00r	.	0r	.	2e\	-a	4.cc\	-ri-
.	.	.	.	.	.	.	.	.	8cc\	-tu-
.	.	.	.	.	.	.	2f#X\	.	2a\	-i
=102-	=102-	=102	=102	=102	=102	=102	=102	=102	=102	=102
.	.	.	.	.	.	.	4.g\	Fi-	2b\	san-
.	.	.	.	.	.	.	8f#X\	-li-	.	.
.	.	.	.	.	.	.	2e\	-o	2cc\	.
=103-	=103-	=103	=103	=103	=103	=103	=103	=103	=103	=103
.	.	.	.	.	1r	.	2d\	glo-	4.dd\	.
.	.	.	.	.	.	.	.	.	8cc\	.
.	.	.	.	.	.	.	[<2g\	.	2b\	.
!	!	!	!	!	!	!	!	!	!LO:LB:g=original	!
=104-	=104-	=104	=104	=104	=104	=104	=104	=104	=104	=104
.	.	.	.	.	1D	glo-	2g\]	.	2a,<\	-cto
.	.	.	.	.	.	.	2f#X\	-ri-	2dd\	glo-
=105-	=105-	=105	=105	=105	=105	=105	=105	=105	=105	=105
00r	.	.	00r	.	2E/	.	2g,<\	-a	2cc\	.
.	.	.	.	.	[2G/	.	2g\	glo-	2b\	.
=106-	=106-	=106	=106	=106	=106	=106	=106	=106	=106	=106
.	.	.	.	.	2G/]	.	1a	.	2cc\	.
.	.	.	.	.	2F#X/	.	.	.	2dd\	.
=107-	=107-	=107	=107	=107	=107	=107	=107	=107	=107	=107
.	.	.	.	.	2G/	.	1g	.	2b\	.
*	*	*	*	*	*custos:E	*	*	*	*	*
!	!	!	!	!	!LO:LB:g=original	!	!	!	!	!
=-	=-	=-	=-	=-	=-	=-	=-	=-	=-	=-
.	.	.	.	.	4.E/	.	.	.	2cc#X\	.
.	.	.	.	.	8E/	-ri-	.	.	.	.
=108-	=108-	=108	=108	=108	=108	=108	=108	=108	=108	=108
.	.	.	.	.	2D,</	-a	2f#X\	.	2dd\	.
.	.	.	.	.	4G/	et	[<2g\	.	2b\	.
.	.	.	.	.	4G/	Spi-	.	.	.	.
!	!	!	!	!	!	!	!LO:LB:g=original	!	!	!
=109-	=109-	=109	=109	=109	=109	=109	=109	=109	=109	=109
!	!	!	!	!	!	!	!LO:TX:t=P:problem:brak zakończenia łuku	!	!	!
0r	.	.	0r	.	4c\	-ri-	2.g\]	.	1ee	.
.	.	.	.	.	4d\	-tu-	.	.	.	.
.	.	.	.	.	(4e\	-i	.	.	.	.
.	.	.	.	.	4c\)	.	4a\	.	.	.
=110-	=110-	=110	=110	=110	=110	=110	=110	=110	=110	=110
.	.	.	.	.	4d\	San-	2f#X\	.	1dd	.
.	.	.	.	.	4c\	.	.	.	.	.
.	.	.	.	.	2B\	.	[<2g\	.	.	.
=111-	=111-	=111	=111	=111	=111	=111	=111	=111	=111	=111
!LO:TX:t=P:problem:kreska pseudotaktowa	!	!	!	!	!	!	!	!	!	!
1r	.	.	1r	.	1A	.	2g\]	.	2.cc\	.
.	.	.	.	.	.	.	2f#X\	-ri-	.	.
.	.	.	.	.	.	.	.	.	4cc\	-ri-
!	!	!	!LO:LB:g=original	!	!	!	!	!	!	!
=112-	=112-	=112	=112	=112	=112	=112	=112	=112	=112	=112
2r	.	.	2r	.	2G,</	-cto	2g,<\	-a	2b,<\	-a
!LO:TX:t=P:problem:kreska pseudotaktowa	!	!	!	!	!	!	!	!	!	!
2GG/	.	Glo-	2GG/	glo-	2B\	glo-	4g\	et	2dd\	glo-
.	.	.	.	.	.	.	4g\	spi-	.	.
!	!	!	!	!	!	!	!	!	!LO:LB:g=original	!
=113-	=113-	=113	=113	=113	=113	=113	=113	=113	=113	=113
2AA/	.	.	2AA/	.	2c\	.	4.e\	-ri-	1cc	.
.	.	.	.	.	.	.	8e\	-tu-	.	.
1C/	.	.	[2C/	.	2e\	.	2e\	-i	.	.
=114-	=114-	=114	=114	=114	=114	=114	=114	=114	=114	=114
.	.	.	2C/]	.	1d	.	2f-X\	San-	1dd	.
4BB/	.	-ri-	4BB/	-ri-	.	.	[<2g\	.	.	.
!LO:TX:t=P:problem:kreska pseudotaktowa	!	!	!	!	!	!	!	!	!	!
4BB/	.	-a	4BB/	-a	.	.	.	.	.	.
=115-	=115-	=115	=115	=115	=115	=115	=115	=115	=115	=115
*	*	*	*	*	*	*	*	*	*2\left	*
4C/	.	Fi-	4.C/	Fi-	1c	.	2g\]	.	2ee\	.
4C/	.	.	.	.	.	.	.	.	.	.
.	.	-li-	8C/	-li-	.	.	.	.	.	.
!LO:TX:t=P:problem:kreska pseudotaktowa	!	!	!	!	!	!	!	!	!	!
2AA/	.	-o	2AA/	-o	.	.	2a\	.	2cc\	.
=116-	=116-	=116	=116	=116	=116	=116	=116	=116	=116	=116
2GG/	.	et	2GG/	et	2d\	.	2d,<\	-cto	2b\	.
!LO:TX:t=P:problem:kreska pseudotaktowa	!	!	!	!	!	!	!	!	!	!
2BB/	.	Spi-	2BB/	ſpi-	2G/	.	[2g\	glo-	2dd\	.
=117-	=117-	=117	=117	=117	=117	=117	=117	=117	=117	=117
*	*	*	*	*	*	*	*	*	*2\right	*
4C/	.	-ri-	4C\	-ri-	1c	.	4g\]	.	2ee\	.
4D/	.	-tu-	4D\	-tu-	.	.	4f#X\	.	.	.
4E/	.	-i	4E\	-i	.	.	4g\	.	[<2cc\	.
!LO:TX:t=P:problem:kreska pseudotaktowa	!	!	!	!	!	!	!	!	!	!
4C/	.	.	4C\	.	.	.	4e\	.	.	.
=118-	=118-	=118	=118	=118	=118	=118	=118	=118	=118	=118
2D/	.	San-	2D/	San-	2A/	.	2f#X\	.	2cc\]	.
!	!	!	!	!	!	!	!LO:LB:g=original	!	!	!
=-	=-	=-	=-	=-	=-	=-	=-	=-	=-	=-
!LO:TX:t=P:problem:kreska pseudotaktowa	!	!	!	!	!	!	!	!	!	!
2GG/	.	-cto	2GG/	-cto	2d\	.	[<2g\	.	2b\	.
=119-	=119-	=119	=119	=119	=119	=119	=119	=119	=119	=119
2.D\	.	glo-	2.D/	glo-	2.d\	.	2g\]	.	2.a\	-ri-
.	.	.	.	.	.	.	4.f#X\	.	.	.
!LO:TX:t=P:problem:kreska pseudotaktowa	!	!	!	!	!	!	!	!	!	!
4D\	.	-ri-	4D/	-ri-	4d\	-ri-	.	.	4aT\	-a
.	.	.	.	.	.	.	8f#\	-ri-	.	.
=120-	=120-	=120	=120	=120	=120	=120	=120	=120	=120	=120
!LO:TX:t=P:problem:kreska pseudotaktowa	!	!	!	!	!	!	!	!	!	!
!LO:N:vis=0GG;	!	!	!	!	!	!	!	!	!	!
1GG;	.	-a.	1GG	-a	1d	-a.	1g;<	-a	1b;	.
!	!	!	!LO:LB:g=original	!	!LO:LB:g=original	!	!	!	!LO:LB:g=original	!
=121||-	=121||-	=121||	=121||	=121||	=121||	=121||	=121||	=121||	=121||	=121||
*M3/2	*	*	*M3/4	*	*M3/4	*	*M3/4	*	*M3/4	*
!LO:TX:t=P:problem:inne metrum niż pozostałe głosy. 2x dłuższe wartości rytmiczne	!	!	!	!	!LO:TX:a:t=8.	!	!LO:TX:a:t=2	!	!	!
0.r	.	.	0.r	.	0.r	.	1.r	.	8dd\	Si-
.	.	.	.	.	.	.	.	.	8dd\	-cut
.	.	.	.	.	.	.	.	.	8dd\	e-
.	.	.	.	.	.	.	.	.	8dd\	-rat
.	.	.	.	.	.	.	.	.	8dd\	in
.	.	.	.	.	.	.	.	.	8dd\	prin-
=122-	=122-	=122	=122	=122	=122	=122	=122	=122	=122	=122
.	.	.	.	.	.	.	.	.	4.ee\	-ci-
.	.	.	.	.	.	.	.	.	8ee\	-pi-
.	.	.	.	.	.	.	.	.	4ee,<\	-o
=123-	=123-	=123	=123	=123	=123	=123	=123	=123	=123	=123
.	.	.	.	.	.	.	8g\	Si-	4dd\	(et)
.	.	.	.	.	.	.	8g\	-cut	.	.
.	.	.	.	.	.	.	8g\	e-	4dd\	nunc
.	.	.	.	.	.	.	8g\	-rat	.	.
.	.	.	.	.	.	.	8g\	in	4dd\	et
.	.	.	.	.	.	.	8g\	prin-	.	.
=124-	=124-	=124	=124	=124	=124	=124	=124	=124	=124	=124
.	.	.	.	.	.	.	4.a\	-ci-	(4.cc\	sem-
.	.	.	.	.	.	.	8a\	-pi-	8b\L	.
.	.	.	.	.	.	.	4a\	-o	8a\	.
.	.	.	.	.	.	.	.	.	8cc\J)	.
=125-	=125-	=125	=125	=125	=125	=125	=125	=125	=125	=125
0.r	.	.	0.r	.	0.r	.	4g\	et	4b,<\	-per
.	.	.	.	.	.	.	4g\	nunc	4b\	et
.	.	.	.	.	.	.	4g\	et	4b\	in
=126-	=126-	=126	=126	=126	=126	=126	=126	=126	=126	=126
.	.	.	.	.	.	.	4.f\	sem-	4a\	sae-
.	.	.	.	.	.	.	.	.	8a\	-cu-
.	.	.	.	.	.	.	(8e\L	.	8a\	-la
.	.	.	.	.	.	.	8d\	.	8dd\	sae-
.	.	.	.	.	.	.	8f\J)	.	8dd\	-cu-
!	!	!	!	!	!	!	!LO:LB:g=original	!	!LO:LB:g=original	!
=127-	=127-	=127	=127	=127	=127	=127	=127	=127	=127	=127
.	.	.	.	.	.	.	4e\	-per	2dd\	-lo-
.	.	.	.	.	.	.	4e\	et	.	.
.	.	.	.	.	.	.	4e\	in	[<4cc\	.
=128-	=128-	=128	=128	=128	=128	=128	=128	=128	=128	=128
.	.	.	.	.	.	.	4d\	sae-	2cc\]	.
.	.	.	.	.	.	.	8d\	-cu-	.	.
.	.	.	.	.	.	.	8d\	-la	.	.
.	.	.	.	.	.	.	8g\	sae-	4b\	.
.	.	.	.	.	.	.	8g\	-cu-	.	.
=129-	=129-	=129	=129	=129	=129	=129	=129	=129	=129	=129
!LO:TX:t=P:problem:kreska pseudotaktowa	!	!	!	!	!	!	!	!	!	!
1.r	.	.	1.r	.	8d\	Si-	2g\	-lo-	2a\	.
.	.	.	.	.	8d\	-cut	.	.	.	.
.	.	.	.	.	8d\	e-	.	.	.	.
.	.	.	.	.	8d\	-rat	.	.	.	.
.	.	.	.	.	8d\	in	4f#X\	.	[<4dd\	.
.	.	.	.	.	8d\	prin-	.	.	.	.
=130-	=130-	=130	=130	=130	=130	=130	=130	=130	=130	=130
.	.	.	.	.	4.e\	-ci-	2.g\	-rum	2dd\]	.
.	.	.	.	.	8e\	-pi-	.	.	.	.
.	.	.	.	.	4e\	-o	.	.	[<4cc\	.
=131-	=131-	=131	=131	=131	=131	=131	=131	=131	=131	=131
8G\	.	Si-	8G\	Si-	4d\	et	2g\	sae-	2cc\]	.
8G\	4_	-cut	8G\	-cut	.	.	.	.	.	.
8G\	.	e-	8G\	e-	4d\	nunc	.	.	.	.
8G\	3._	-rat	8G\	-rat	.	.	.	.	.	.
8G\	.	in	8G\	in	4d\	et	4g\	-cu-	4b\	.
!LO:TX:t=P:problem:kreska pseudotaktowa	!	!	!	!	!	!	!	!	!	!
8G\	x	prin-	8G\	prin-	.	.	.	.	.	.
=132-	=132-	=132	=132	=132	=132	=132	=132	=132	=132	=132
4.A\	.	-ci-	4.A\	-ci-	4.c\	sem-	2e\	-lo-	2.cc\	.
8A\	.	-pi-	8A\	-pi-	8B\L	.	.	.	.	.
!LO:TX:t=P:problem:kreska pseudotaktowa	!	!	!	!	!	!	!	!	!	!
4A\	.	-o	4A\	-o	8A\	.	4f#X\	.	.	.
.	.	.	.	.	8c\J	.	.	.	.	.
=133-	=133-	=133	=133	=133	=133	=133	=133	=133	=133	=133
4G\	.	et	4G\	et	4B\	-per	4g\	.	4dd,<\	-rum
4G\	.	nunc	4G\	nunc	4B\	et	4g\	-rum	8g/	sae-
.	.	.	.	.	.	.	.	.	8g/	-cu-
!LO:TX:t=P:problem:kreska pseudotaktowa	!	!	!	!	!	!	!	!	!	!
4G\	.	et	4G\	et	4B\	in	8d\	sae-	8g/	-lo-
.	.	.	.	.	.	.	8e\	-cu-	8g/	-ru(m)
=134-	=134-	=134	=134	=134	=134	=134	=134	=134	=134	=134
!	!	!	!	!	!	!	!LO:N:acc=-	!	!	!
4.F\	.	sem-	4.F\	sem-	4A\	sae-	2fn\	-lo-	2a\	sae-
.	.	.	.	.	8A\	-cu-	.	.	.	.
8E\L	.	.	8E\L	.	8A\	-la	.	.	.	.
8D\	.	.	8D\	.	8d\	sae-	4f\	-rum	4a\	cu-
!LO:TX:t=P:problem:kreska pseudotaktowa	!	!	!	!	!	!	!	!	!	!
8F\J	.	.	8F\J	.	8d\	-cu-	.	.	.	.
=135-	=135-	=135	=135	=135	=135	=135	=135	=135	=135	=135
!LO:LB:g=original	!	!	!	!	!	!	!	!	!	!
4E,<\	.	-per	4E,<\	-per	(2d\	-lo-	2g\	sae-	2e/	-lo-
4E\	.	et	4E\	et	.	.	.	.	.	.
!LO:TX:t=P:problem:kreska pseudotaktowa	!	!	!	!	!	!	!	!	!	!
4E\	.	in	4E\	in	4c#X\)	.	4g\	-cu-	4ee\	.
=136-	=136-	=136	=136	=136	=136	=136	=136	=136	=136	=136
4D\	.	sae-	4D\	sae-	4d\	-ru(m)	2f#X\	-lo-	2a\	.
8D\	.	-cu-	8D\	-cu-	4d\	sae-	.	.	.	.
8D\	.	-la	8D\	-la	.	.	.	.	.	.
8G\	.	sae-	8G\	sae-	4d\	-cu-	4g\	.	4b\	.
!LO:TX:t=P:problem:kreska pseudotaktowa	!	!	!	!	!	!	!	!	!	!
8G\	.	-cu-	8G\	-cu-	.	.	.	.	.	.
!	!	!	!LO:LB:g=original	!	!	!	!	!	!	!
=137-	=137-	=137	=137	=137	=137	=137	=137	=137	=137	=137
!LO:TX:t=P:problem:kreska pseudotaktowa	!	!	!	!	!	!	!	!	!	!
2.D/	.	-lo-	2.D/	-lo-	2.d\	-lo-	2g\	.	2.a\	.
.	.	.	.	.	.	.	4f#X\	.	.	.
!	!	!	!	!	!	!	!LO:LB:g=original	!	!LO:LB:g=original	!
=138-	=138-	=138	=138	=138	=138	=138	=138	=138	=138	=138
4GG,</	.	-rum	4GG/	-rum	4d\	-ru(m)	4g\	-rum	4b,<\	-rum
4GG/	.	a-	4GG/	a-	4G/	a-	4d\	a-	4g/	a-
!LO:TX:t=P:problem:kreska pseudotaktowa	!	!	!	!	!	!	!	!	!	!
4BB/	.	-men	4BB/	-men	4G/	-men	4d\	-men	4g/	-men
=139-	=139-	=139	=139	=139	=139	=139	=139	=139	=139	=139
*	*	*ij	*	*	*	*	*	*	*	*
2C/	.	a-	2C/	a-	2G/	a-	2e\	a-	2g/	a-
!LO:TX:t=P:problem:kreska pseudotaktowa	!	!	!	!	!	!	!	!	!	!
4AA/	.	-men	4AA/	-men	4c\	.	4e\	-men	4a/	-men
*	*	*Xij	*	*	*	*	*	*	*	*
=140-	=140-	=140	=140	=140	=140	=140	=140	=140	=140	=140
[2.D/	.	a-	[2.D/	a-	2c\	.	[<2.d\	a-	4f#X/	a-
.	.	.	.	.	.	.	.	.	4d/	.
.	.	.	.	.	4B\	-men	.	.	4g/	-men
=141-	=141-	=141	=141	=141	=141	=141	=141	=141	=141	=141
2.D/]	.	.	2.D/]	.	2.A/	a-	2.d\]	.	2g/	a-
.	.	.	.	.	.	.	.	.	4f#X/	.
=142-	=142-	=142	=142	=142	=142	=142	=142	=142	=142	=142
!	!	!	!	!	!LO:TX:b:i:t=O. ad M. D. G.	!	!	!	!	!
[2.GG;/	.	-men.	1.GG;	-men.	1.B;	-men.	1.d\	-men.	1.g;\	-men.
=143-	=143-	=143	=143	=143	=143	=143	=143	=143	=143	=143
2.GG/]	.	.	.	.	.	.	.	.	.	.
==	==	==	==	==	==	==	==	==	==	==
*-	*-	*-	*-	*-	*-	*-	*-	*-	*-	*-
!!!system-decoration: [(s1,s2,s3,s4,s5)]
!!!RDF**kern: < = below
!!!ENC: Andrzej Gręziak
!!!END: 2024-04-17
!!!EED: Marta Chmielewska
!!!EEV: 2024-06-02
